X: 1
T:BWV anh. 126
C:Johann Sebastian Bach? 
R:Musette
Z:Transcribed by Frank Nordberg - http://www.musicaviva.com

V:1 Program 1 6 %Harpsichord
V:2 Program 1 6 bass %Harpsichord
M:2/4
L:1/8

K:D
V:1
a2g/f/e/d/|a2g/f/e/d/|F/G/AGF|EAFD|
V:2
D,,D, D,,D,|D,,D, D,,D,|F,/G,/A, G,F,|E,A,F,D,|

V:1
a2g/f/e/d/|a2g/f/e/d/|F/G/AGF|EAD2:|
V:2
D,,D, D,,D,|D,,D, D,,D,|F,/G,/A, G,F,|E,A,D,2:|

V:1
|:c/d/e c/d/e|aee2|ae ae|d/c/B/A/ BE|
V:2
|:A,,A, A,,A,|A,,A, A,,A,|A,,A, A,,A,|A,,A, E,,E,|

V:1
e^dE=d-|dca^g| e^dE=d-|dca^g|
V:2
E,,E, E,,E,|E,,E, E,,E,|E,,E, E,,E,|E,,E, E,,E,|

V:1
e/^d/c/d/ e/d/c/d/|e^GAd|c/d/eAD|C/D/EA,2|
V:2
E,,E, E,,E,|E,,E, C,D,|E,2A,,D,|C,/D,/E,A,,2|

V:1
a2g/f/e/d/|a2g/f/e/d/|F/G/AGF|EAFD|
V:2
D,,D, D,,D,|D,,D, D,,D,|F,/G,/A, G,F,|E,A,F,D,|

V:1
a2g/f/e/d/|a2g/f/e/d/|F/G/AGF|EAD2:|]
V:2
D,,D, D,,D,|D,,D, D,,D,|F,/G,/A, G,F,|E,A,D,2:|]

